src/images/twitter.svg

<svg fill="none" height="30" viewBox="0 0 30 30" width="30" xmlns="http://www.w3.org/2000/svg"><path d="m10.36 25.32c9.43 0 14.59-7.82 14.59-14.59 0-.22 0-.44-.01-.66 1-.72 1.87-1.63 2.56-2.66-.92.41-1.91.68-2.95.81 1.06-.63 1.87-1.64 2.26-2.84-.99.59-2.09 1.01-3.26 1.24-.93-1-2.27-1.62-3.74-1.62-2.83 0-5.13 2.3-5.13 5.13 0 .4.05.79.13 1.17-4.26-.22-8.04-2.26-10.57-5.36-.44.76-.69 1.64-.69 2.58 0 1.78.91 3.35 2.28 4.27-.84-.03-1.63-.26-2.33-.64v.07c0 2.48 1.77 4.56 4.11 5.03-.43.12-.88.18-1.35.18-.33 0-.65-.03-.96-.09.65 2.04 2.55 3.52 4.79 3.56-1.76 1.38-3.97 2.2-6.37 2.2-.41 0-.82-.02-1.22-.07 2.27 1.44 4.97 2.29 7.86 2.29z" fill="#fff"/></svg>

<svg width="30" height="30" viewBox="0 0 30 30" fill="none" xmlns="http://www.w3.org/2000/svg">
<path d="M10.36 25.32C19.79 25.32 24.95 17.5 24.95 10.73C24.95 10.51 24.95 10.29 24.94 10.07C25.94 9.35 26.81 8.44 27.5 7.41C26.58 7.82 25.59 8.09 24.55 8.22C25.61 7.59 26.42 6.58 26.81 5.38C25.82 5.97 24.72 6.39 23.55 6.62C22.62 5.62 21.28 5 19.81 5C16.98 5 14.68 7.3 14.68 10.13C14.68 10.53 14.73 10.92 14.81 11.3C10.55 11.08 6.77 9.04 4.24 5.94C3.8 6.7 3.55 7.58 3.55 8.52C3.55 10.3 4.46 11.87 5.83 12.79C4.99 12.76 4.2 12.53 3.5 12.15C3.5 12.17 3.5 12.19 3.5 12.22C3.5 14.7 5.27 16.78 7.61 17.25C7.18 17.37 6.73 17.43 6.26 17.43C5.93 17.43 5.61 17.4 5.3 17.34C5.95 19.38 7.85 20.86 10.09 20.9C8.33 22.28 6.12 23.1 3.72 23.1C3.31 23.1 2.9 23.08 2.5 23.03C4.77 24.47 7.47 25.32 10.36 25.32Z" fill="white"/>
</svg>
